static/contact.svg

<svg fill="none" height="650" viewBox="0 0 650 650" width="650" xmlns="http://www.w3.org/2000/svg"><path d="m14 349.47c0-11.573 8.2599-21.498 19.6411-23.6l219.9999-40.632c14.751-2.725 28.359 8.6 28.359 23.6v310.324c0 15-13.608 26.325-28.359 23.6l-219.9999-40.632c-11.3812-2.102-19.6411-12.027-19.6411-23.6z" fill="#ffc93d"/><path d="m130 107.438c0-14.8668 13.378-26.1573 28.033-23.6589l104 17.7299c11.532 1.966 19.967 11.96 19.967 23.659v101.925c0 11.583-8.273 21.513-19.665 23.605l-104 19.099c-14.744 2.707-28.335-8.615-28.335-23.606z" fill="#69cb84"/><path d="m314 434.661c0-14.602 12.929-25.819 27.384-23.761l140 19.941c11.828 1.685 20.616 11.813 20.616 23.761v145.796c0 11.948-8.788 22.076-20.616 23.761l-140 19.941c-14.455 2.058-27.384-9.159-27.384-23.761z" fill="#33a1fd"/><path d="m314 68.9153c0-11.9111 8.736-22.0199 20.521-23.7465l274-40.14293c14.485-2.12217 27.479 9.10673 27.479 23.74653v360.4556c0 14.639-12.994 25.868-27.479 23.746l-274-40.143c-11.785-1.726-20.521-11.835-20.521-23.746z" fill="#e15285"/></svg>

<svg width="650" height="650" viewBox="0 0 650 650" fill="none" xmlns="http://www.w3.org/2000/svg">
<path d="M14 349.47C14 337.897 22.2599 327.972 33.6411 325.87L253.641 285.238C268.392 282.513 282 293.838 282 308.838V619.162C282 634.162 268.392 645.487 253.641 642.762L33.6411 602.13C22.2599 600.028 14 590.103 14 578.53V349.47Z" fill="#FFC93D"/>
<path d="M130 107.438C130 92.5712 143.378 81.2807 158.033 83.7791L262.033 101.509C273.565 103.475 282 113.469 282 125.168V227.093C282 238.676 273.727 248.606 262.335 250.698L158.335 269.797C143.591 272.504 130 261.182 130 246.191V107.438Z" fill="#69CB84"/>
<path d="M314 434.661C314 420.059 326.929 408.842 341.384 410.9L481.384 430.841C493.212 432.526 502 442.654 502 454.602V600.398C502 612.346 493.212 622.474 481.384 624.159L341.384 644.1C326.929 646.158 314 634.941 314 620.339V434.661Z" fill="#33a1fd"/>
<path d="M314 68.9153C314 57.0042 322.736 46.8954 334.521 45.1688L608.521 5.02587C623.006 2.9037 636 14.1326 636 28.7724V389.228C636 403.867 623.006 415.096 608.521 412.974L334.521 372.831C322.736 371.105 314 360.996 314 349.085V68.9153Z" fill="#E15285"/>
</svg>
